X:1
T:Aedibus in sacris
T:Daniel Friderici
T:Source : Bicinia sacra---Rostock---J.Richelius---1642. Editor : André Vierendeels (12/07/17).
T:Notes : Original clefs : G2, G2 Editorial accidentals above the staff
T:Aedibus in sacris
T:©
T:©
T:©
C:Daniel Friderici
Z:©
%%score [ 1 2 ]
L:1/8
Q:1/4=120
M:2/2
K:C
V:1 treble nm="Soprano 1" snm="S 1"
V:2 treble nm="Soprano 2" snm="S 2"
V:1
 e3 e d2 e2 | f4 e2 e2 | e2 e2 e2 dc | B4 B2 c2 | d2 d2 d2 cB | A4 A2 B2 | c2 c2 c2 BA | G4 G2 g2 | %8
w: Ae- di- bus in|sa- cris non|fas tra- cta- * *|* re, non|fas tra- cta- * *|* re, non|fas tra- cta- * *|* re, non|
 g2 g2 g2 fe | d4 d2 f2 | f2 f2 f2 ed | c4 c2 d2 | e2 e2 e2 dc | B4 B2 c2 | d4 d2 e2 | f4 e2 c2 | %16
w: fas tra- cta- * *|* re, non|fa tr- cta- * *|* re, non|fas tra- cta- * *|* re, pro-|pha- na, pro-|pha- na, pro-|
 d8 |[M:2/4] d4 :: z2 e2 |[M:2/2] d3 d d2 g2 | e3 e e2 g2 | e3 e e2 e2 | c3 c c2 c2 | A3 A A3 c | %24
w: pha-|na,|aut|e- me- re, aut|e- me- re, aut|e- me- re, aut|e- me- re, aut|e- me- re, aut|
 c2 B2 c2 A2 | G4 z2 c2 | c2 B2 c2 A2 | G4 edef | g3 f/e/ d3 e | f3 g a3 g/f/ | e3 ^f g3 f/e/ | %31
w: si vis ven- de-|re, aut|si vis ven- de-|re quae- * * *||||
 d3 e f3 e/d/ | c3 d e3 d/c/ | B3 c d3 c/B/ | A3 B c3 B/A/ | G2 c4 B2 | c8 :| %37
w: ||||* re fo-|rum.|
V:2
 c3 c B2 c2 | F4 c4 | z4 z2 G2 | G2 G2 G2 FE | D4 D2 F2 | F2 F2 F2 ED | C4 C2 E2 | E2 E2 E2 DC | %8
w: Ae- di- bus in|sa- cris|non|fas tra- cta- * *|* re, non|fas tra- cta- * *|* re, non|fas tra- cta- * *|
 c4 c2 d2 | B2 G2 d2 cB | A4 A2 A2 | A2 A2 A2 GF | E4 E2 G2 | G2 G2 G2 FE | D4 D2 C2 | F4 c2 A2 | %16
w: * re, non|fas tra- cta- * *|* re, non|fas tra- cta- * *|* re, non|fas tra- cta- * *|* re, pro-|pha- na, pro-|
 G8 |[M:2/4] G4 :: z2 C2 |[M:2/2] G3 G G2 G2 | c3 c c4 | z2 c2 A3 A | A2 A2 F3 F | F2 F2 D3 C | %24
w: pha-|na,|aut|e- me- re, aut|e- me- re,|aur e- me-|re, aut e- me-|re, aut e- me-|
 G4 z2 c2 | c2 B2 c2 A2 | G4 z2 c2 |"^-natural" c2 B2 c2 A2 | G4 GABc | d3 c/B/ A3 B | %30
w: re, aut|si vis ven- de-|re, aut|si vis ven- de-|re quae- * * *||
 c3 B/A/ G3 A | _B3 A/G/ F3 G | A3 G/F/ F3 G | G3 F/E/ D3 E | F3 F/E/ C3 D | E2 C2 G4 | C8 :| %37
w: |||||* re fo-|rum.|

